components/icon/svg/24/action_delete.svg

<?xml version="1.0" encoding="UTF-8"?>
<svg width="24px" height="24px" viewBox="0 0 24 24" version="1.1" xmlns="http://www.w3.org/2000/svg" xmlns:xlink="http://www.w3.org/1999/xlink">
    <!-- Generator: Sketch 64 (93537) - https://sketch.com -->
    <title>ic-db_action_delete_24</title>
    <desc>Created with Sketch.</desc>
    <g id="Symbols" stroke="none" stroke-width="1" fill="none" fill-rule="evenodd">
        <g id="24dp-Icon/Action/Delete" fill="#282D37">
            <path d="M3,8 C3,7.4375 3.4375,7 4,7 L5,7 C6.09375,7 7,7.90625 7,9 L7,20 L17,20 L17,9 C17,7.90625 17.90625,7 19,7 L20,7 C20.5625,7 21,7.4375 21,8 C21,8.5625 20.5625,9 20,9 L19,9 L19,20 C19,21.09375 18.09375,22 17,22 L7,22 C5.90625,22 5,21.09375 5,20 L5,9 L4,9 C3.4375,9 3,8.5625 3,8 Z M3,5 C3,4.4375 3.4375,4 4,4 L8,4 L8,3 C8,2.4375 8.4375,2 9,2 L15,2 C15.25,2 15.5,2.09375 15.6875,2.28125 C15.875,2.46875 16,2.71875 16,3 L16,4 L20,4 C20.5625,4 21,4.4375 21,5 C21,5.5625 20.5625,6 20,6 L4,6 C3.4375,6 3,5.5625 3,5 Z M9,17 L9,10 C9,9.46875 9.46875,9 10,9 C10.5625,9 11,9.46875 11,10 L11,17 C11,17.53125 10.5625,18 10,18 C9.4375,18 9,17.53125 9,17 Z M13,17 L13,10 C13,9.46875 13.46875,9 14,9 C14.5625,9 15,9.46875 15,10 L15,17 C15,17.53125 14.5625,18 14,18 C13.4375,18 13,17.53125 13,17 Z" id="🎨-Color"></path>
        </g>
    </g>
</svg>

<svg width="24" height="24" xmlns="http://www.w3.org/2000/svg"><path d="M3 8c0-.563.438-1 1-1h1c1.094 0 2 .906 2 2v11h10V9c0-1.094.906-2 2-2h1c.563 0 1 .438 1 1 0 .563-.438 1-1 1h-1v11c0 1.094-.906 2-2 2H7c-1.094 0-2-.906-2-2V9H4c-.563 0-1-.438-1-1zm0-3c0-.563.438-1 1-1h4V3c0-.563.438-1 1-1h6a1.017 1.017 0 011 1v1h4c.563 0 1 .438 1 1 0 .563-.438 1-1 1H4c-.563 0-1-.438-1-1zm6 12v-7c0-.531.469-1 1-1 .563 0 1 .469 1 1v7c0 .531-.438 1-1 1-.563 0-1-.469-1-1zm4 0v-7c0-.531.469-1 1-1 .563 0 1 .469 1 1v7c0 .531-.438 1-1 1-.563 0-1-.469-1-1z" fill="#282D37" fill-rule="evenodd"/></svg>
